src/images/svg/markets/cryptocurrencies.svg

<svg width="48" height="48" viewBox="0 0 48 48" fill="none" xmlns="http://www.w3.org/2000/svg">
<path fill-rule="evenodd" clip-rule="evenodd" d="M39 0C43.9706 0 48 4.0294 48 9V39C48 43.9706 43.9706 48 39 48H9C4.0294 48 0 43.9706 0 39V9C0 4.0294 4.0294 0 9 0H39Z" fill="#33658A"/>
<path d="M23.9528 31.1226C20.1226 31.1226 17.0189 28.0189 17.0189 24.1887C17.0189 20.3585 20.1226 17.2547 23.9528 17.2547C26 17.2547 27.9151 18.1132 29.2358 19.6321L33 16.3962C31.6792 14.8113 29.9623 13.6887 28.0472 13.0283V9H25.7358V12.3679C25.1415 12.3019 24.5472 12.2358 23.9528 12.2358C23.2925 12.2358 22.6981 12.3019 22.0377 12.3679V9H19.7264V13.0283C15.2358 14.7453 12 19.1038 12 24.1887C12 29.2736 15.2358 33.6321 19.7264 35.3491V39.3774H22.0377V35.9434C22.6321 36.0094 23.2925 36.0755 23.9528 36.0755C24.5472 36.0755 25.1415 36.0094 25.7358 35.9434V39.3774H28.0472V35.4151C29.9623 34.7547 31.6132 33.566 33 32.0472L29.1698 28.7453C27.8491 30.2641 25.934 31.1226 23.9528 31.1226Z" fill="white"/>
</svg>

<svg width="48" height="48" fill="none" xmlns="http://www.w3.org/2000/svg"><path fill-rule="evenodd" clip-rule="evenodd" d="M39 0a9 9 0 019 9v30a9 9 0 01-9 9H9a9 9 0 01-9-9V9a9 9 0 019-9h30z" fill="#33658A"/><path d="M23.953 31.123a6.933 6.933 0 01-6.934-6.934 6.933 6.933 0 016.934-6.934c2.047 0 3.962.858 5.283 2.377L33 16.396c-1.32-1.585-3.038-2.707-4.953-3.368V9h-2.311v3.368c-.595-.066-1.189-.132-1.783-.132-.66 0-1.255.066-1.915.132V9h-2.312v4.028C15.236 14.745 12 19.104 12 24.188c0 5.086 3.236 9.444 7.726 11.161v4.028h2.312v-3.434c.594.066 1.255.133 1.915.133.594 0 1.189-.067 1.783-.133v3.434h2.311v-3.962c1.915-.66 3.566-1.849 4.953-3.368l-3.83-3.302a6.927 6.927 0 01-5.217 2.378z" fill="#fff"/></svg>
